packages/kaspersky-hexa-ui-icons/src/iconsSVGs/48/MalwareBug.svg

<svg width="48" height="48" viewBox="0 0 48 48" fill="none" xmlns="http://www.w3.org/2000/svg">
<path fill-rule="evenodd" clip-rule="evenodd" d="M16.7071 3.29289C16.3166 2.90237 15.6834 2.90237 15.2929 3.29289C14.9024 3.68342 14.9024 4.31658 15.2929 4.70711L17.6801 7.09436C16.6271 8.44904 16 10.1513 16 12V12.2899C13.7422 12.9618 11.9618 14.7422 11.2899 17H7C6.44772 17 6 16.5523 6 16V8C6 7.44772 5.55228 7 5 7C4.44772 7 4 7.44772 4 8V16C4 17.6569 5.34315 19 7 19L11 19V24H5.99999C5.44771 24 4.99999 24.4477 4.99999 25C4.99999 25.5523 5.44771 26 5.99999 26H11V31H7C5.34315 31 4 32.3431 4 34V42C4 42.5523 4.44772 43 5 43C5.55228 43 6 42.5523 6 42V34C6 33.4477 6.44772 33 7 33H11V35C11 39.9706 15.0294 44 20 44H28C32.9706 44 37 39.9706 37 35V33H41C41.5523 33 42 33.4477 42 34V42C42 42.5523 42.4477 43 43 43C43.5523 43 44 42.5523 44 42V34C44 32.3432 42.6569 31 41 31H37V26H42C42.5523 26 43 25.5523 43 25C43 24.4477 42.5523 24 42 24H37V19L41 19C42.6569 19 44 17.6569 44 16V8C44 7.44772 43.5523 7 43 7C42.4477 7 42 7.44772 42 8V16C42 16.5523 41.5523 17 41 17H36.7101C36.0382 14.7422 34.2578 12.9618 32 12.2899V12C32 10.1513 31.3729 8.44904 30.3199 7.09436L32.7071 4.70711C33.0976 4.31658 33.0976 3.68342 32.7071 3.29289C32.3166 2.90237 31.6834 2.90237 31.2929 3.29289L28.9056 5.68014C27.551 4.62708 25.8487 4 24 4C22.1513 4 20.449 4.62708 19.0944 5.68014L16.7071 3.29289ZM25 14H30C32.7614 14 35 16.2386 35 19V35C35 38.866 31.866 42 28 42H25V14ZM18 14H23V42H20C16.134 42 13 38.866 13 35V19C13 16.2386 15.2386 14 18 14ZM18 12C18 8.68629 20.6863 6 24 6C27.3137 6 30 8.68629 30 12H18Z" fill="black"/>
</svg>

<svg xmlns="http://www.w3.org/2000/svg" width="48" height="48" fill="none" viewBox="0 0 48 48"><path fill="#000" fill-rule="evenodd" d="M16.7071 3.2929c-.3905-.3905-1.0237-.3905-1.4142 0s-.3905 1.0237 0 1.4142l2.3872 2.3873C16.6271 8.449 16 10.1513 16 12v.2899c-2.2578.6719-4.0382 2.4523-4.7101 4.7101H7c-.5523 0-1-.4477-1-1V8c0-.5523-.4477-1-1-1s-1 .4477-1 1v8c0 1.6569 1.3431 3 3 3h4v5H6c-.5523 0-1 .4477-1 1s.4477 1 1 1h5v5H7c-1.6569 0-3 1.3431-3 3v8c0 .5523.4477 1 1 1s1-.4477 1-1v-8c0-.5523.4477-1 1-1h4v2c0 4.9706 4.0294 9 9 9h8c4.9706 0 9-4.0294 9-9v-2h4c.5523 0 1 .4477 1 1v8c0 .5523.4477 1 1 1s1-.4477 1-1v-8c0-1.6568-1.3431-3-3-3h-4v-5h5c.5523 0 1-.4477 1-1s-.4477-1-1-1h-5v-5h4c1.6569 0 3-1.3431 3-3V8c0-.5523-.4477-1-1-1s-1 .4477-1 1v8c0 .5523-.4477 1-1 1h-4.2899c-.6719-2.2578-2.4523-4.0382-4.7101-4.7101V12c0-1.8487-.6271-3.551-1.6801-4.9056l2.3872-2.3873c.3905-.3905.3905-1.0237 0-1.4142s-1.0237-.3905-1.4142 0L28.9056 5.68C27.551 4.6271 25.8487 4 24 4s-3.551.627-4.9056 1.6801zM25 14h5c2.7614 0 5 2.2386 5 5v16c0 3.866-3.134 7-7 7h-3zm-7 0h5v28h-3c-3.866 0-7-3.134-7-7V19c0-2.7614 2.2386-5 5-5m0-2c0-3.3137 2.6863-6 6-6s6 2.6863 6 6z"/></svg>
